images/leaf-bg.svg

<svg xmlns="http://www.w3.org/2000/svg" width="80" height="40" viewBox="0 0 80 40"><path fill="#467366" d="M25.3 20.7A20.1 20.1 0 0 0 0 40h2a18 18 0 0 1 5.3-12.7L8.8 26v9.8L4.5 40h2.9l16.4-16.4a18 18 0 0 1-5.2 15.1L17.2 40h3a20 20 0 0 0 5.1-19.3zm-14.5 13v-9.1a18.2 18.2 0 0 1 11.6-2.4zM65.3.7a20 20 0 0 0-24.6 24.6A20 20 0 0 0 65.3.7zM50.8 4.6a18 18 0 0 1 11.6-2.4L50.8 13.8zm-3.5 2.7L48.8 6v9.7l-6.6 6.6a18 18 0 0 1 5.1-15zm11.4 11.4a18 18 0 0 1-15 5.1L63.8 3.6a18 18 0 0 1-5.1 15.1zM17.2 0A18 18 0 0 1 3.6 3.8L7.4 0H4.6L2.2 2.4A18.1 18.1 0 0 1 2.1 0h-2a20.1 20.1 0 0 0 .6 5.3A20 20 0 0 0 20.1.1h-2.9z"/></svg>

<svg id="Layer_1" data-name="Layer 1" xmlns="http://www.w3.org/2000/svg" width="80" height="40" viewBox="0 0 80 40"><title>leaf-bg</title><path d="M25.3,20.7A20.1,20.1,0,0,0,0,40H2A18,18,0,0,1,7.3,27.3L8.8,26v9.8L4.5,40H7.4L23.8,23.6a18,18,0,0,1-5.2,15.1L17.2,40h3A20,20,0,0,0,25.3,20.7Zm-14.5,13V24.6a18.2,18.2,0,0,1,11.6-2.4Z" fill="#467366"/><path d="M65.3.7A20,20,0,0,0,40.7,25.3,20,20,0,0,0,65.3.7ZM50.8,4.6A18,18,0,0,1,62.4,2.2L50.8,13.8ZM47.3,7.3,48.8,6v9.7l-6.6,6.6A18,18,0,0,1,47.3,7.3ZM58.7,18.7a18,18,0,0,1-15,5.1L63.8,3.6A18,18,0,0,1,58.7,18.7Z" fill="#467366"/><path d="M17.2,0A18,18,0,0,1,3.6,3.8L7.4,0H4.6L2.2,2.4A18.1,18.1,0,0,1,2.1,0H.1A20.1,20.1,0,0,0,.7,5.3,20,20,0,0,0,20.1.1H17.2Z" fill="#467366"/></svg>
